tools/download-figma-icons/icons/outlined-large/electric-tower.svg

<svg width="64" height="65" viewBox="0 0 64 65" fill="none" xmlns="http://www.w3.org/2000/svg"><path fill-rule="evenodd" clip-rule="evenodd" d="m32 54.191 12.7 6.906H19.301L32 54.191Zm-13.227-7.193 10.088 5.486-13.193 7.175 3.105-12.661Zm4.62-18.841 6.227 5.053-9.321 7.564 3.094-12.617ZM24 5.81l6.087 7.69L24 21.189V5.81Zm8 5.274L25.6 3h12.8L32 11.084Zm8 10.105L33.913 13.5 40 5.81v15.379ZM25.601 24 32 15.916 38.399 24H25.601Zm11.67 3L32 31.278 26.729 27h10.542Zm-2.89 6.21 6.226-5.053 3.094 12.617-9.32-7.564ZM32 50.777l-11.535-6.274L32 35.141l11.536 9.362L32 50.777Zm13.228-3.779 3.105 12.661-13.193-7.175 10.088-5.486ZM57.5 61.097h-5.726L43 25.317v-7.223l9.823 4.749v1.063h-.091a1.41 1.41 0 0 0-1.409 1.409v3.182a1.41 1.41 0 0 0 1.409 1.409h3.182a1.41 1.41 0 0 0 1.409-1.409v-3.182a1.41 1.41 0 0 0-1.409-1.409h-.091v-2.004c0-.575-.329-1.1-.846-1.351L43 14.761V3.891l9.823 4.749v1.063h-.091a1.41 1.41 0 0 0-1.409 1.409v3.182a1.41 1.41 0 0 0 1.409 1.409h3.182a1.41 1.41 0 0 0 1.409-1.409v-3.182a1.41 1.41 0 0 0-1.409-1.409h-.091V7.699c0-.575-.329-1.1-.846-1.351L42.153.149c-.011-.006-.023-.008-.035-.013-.04-.018-.083-.032-.124-.047-.038-.012-.074-.029-.112-.039-.017-.005-.032-.006-.05-.01-.037-.009-.076-.013-.114-.018-.04-.007-.08-.016-.121-.019h-.067c-.01 0-.019-.003-.03-.003h-19c-.011 0-.02.003-.03.003h-.068c-.041.003-.08.013-.121.019-.037.005-.076.009-.113.018-.017.004-.033.005-.051.01-.038.01-.074.027-.112.04-.041.014-.083.028-.123.046-.012.005-.024.007-.035.013L9.024 6.348a1.503 1.503 0 0 0-.846 1.351v2.004h-.091a1.41 1.41 0 0 0-1.409 1.409v3.182a1.41 1.41 0 0 0 1.409 1.409h3.182a1.41 1.41 0 0 0 1.409-1.409v-3.182a1.41 1.41 0 0 0-1.409-1.409h-.091V8.639L21 3.891v10.87l-11.976 5.79a1.503 1.503 0 0 0-.846 1.351v2.004h-.091a1.41 1.41 0 0 0-1.409 1.409v3.182a1.41 1.41 0 0 0 1.409 1.409h3.182a1.41 1.41 0 0 0 1.409-1.409v-3.182a1.41 1.41 0 0 0-1.409-1.409h-.091v-1.064L21 18.094v7.223l-8.773 35.78H6.5a1.5 1.5 0 0 0 0 3h51a1.5 1.5 0 0 0 0-3Z" fill="currentColor"/></svg>

<svg width="64" height="65" viewBox="0 0 64 65" fill="none" xmlns="http://www.w3.org/2000/svg">
<path fill-rule="evenodd" clip-rule="evenodd" d="M32 54.191L44.7 61.097H19.301L32 54.191ZM18.773 46.998L28.861 52.484L15.668 59.659L18.773 46.998ZM23.393 28.157L29.62 33.21L20.299 40.774L23.393 28.157ZM24 5.81L30.087 13.5L24 21.189V5.81ZM32 11.084L25.6 3H38.4L32 11.084ZM40 21.189L33.913 13.5L40 5.81V21.189ZM25.601 24L32 15.916L38.399 24H25.601ZM37.271 27L32 31.278L26.729 27H37.271ZM34.381 33.21L40.607 28.157L43.701 40.774L34.381 33.21ZM32 50.777L20.465 44.503L32 35.141L43.536 44.503L32 50.777ZM45.228 46.998L48.333 59.659L35.14 52.484L45.228 46.998ZM57.5 61.097H51.774L43 25.317V18.094L52.823 22.843V23.906H52.732C51.954 23.906 51.323 24.537 51.323 25.315V28.497C51.323 29.275 51.954 29.906 52.732 29.906H55.914C56.692 29.906 57.323 29.275 57.323 28.497V25.315C57.323 24.537 56.692 23.906 55.914 23.906H55.823V21.902C55.823 21.327 55.494 20.802 54.977 20.551L43 14.761V3.891L52.823 8.64V9.703H52.732C51.954 9.703 51.323 10.334 51.323 11.112V14.294C51.323 15.072 51.954 15.703 52.732 15.703H55.914C56.692 15.703 57.323 15.072 57.323 14.294V11.112C57.323 10.334 56.692 9.703 55.914 9.703H55.823V7.699C55.823 7.124 55.494 6.599 54.977 6.348L42.153 0.149C42.142 0.143 42.13 0.141 42.118 0.136C42.078 0.118 42.035 0.104 41.994 0.089C41.956 0.077 41.92 0.06 41.882 0.05C41.865 0.045 41.85 0.044 41.832 0.04C41.795 0.031 41.756 0.027 41.718 0.022C41.678 0.015 41.638 0.006 41.597 0.003C41.574 0.003 41.553 0.003 41.53 0.003C41.52 0.003 41.511 0 41.5 0H22.5C22.489 0 22.48 0.003 22.47 0.003C22.447 0.003 22.425 0.003 22.402 0.003C22.361 0.006 22.322 0.016 22.281 0.022C22.244 0.027 22.205 0.031 22.168 0.04C22.151 0.044 22.135 0.045 22.117 0.05C22.079 0.06 22.043 0.077 22.005 0.09C21.964 0.104 21.922 0.118 21.882 0.136C21.87 0.141 21.858 0.143 21.847 0.149L9.024 6.348C8.507 6.599 8.178 7.124 8.178 7.699V9.703H8.087C7.309 9.703 6.678 10.334 6.678 11.112V14.294C6.678 15.072 7.309 15.703 8.087 15.703H11.269C12.047 15.703 12.678 15.072 12.678 14.294V11.112C12.678 10.334 12.047 9.703 11.269 9.703H11.178V8.639L21 3.891V14.761L9.024 20.551C8.507 20.802 8.178 21.327 8.178 21.902V23.906H8.087C7.309 23.906 6.678 24.537 6.678 25.315V28.497C6.678 29.275 7.309 29.906 8.087 29.906H11.269C12.047 29.906 12.678 29.275 12.678 28.497V25.315C12.678 24.537 12.047 23.906 11.269 23.906H11.178V22.842L21 18.094V25.317L12.227 61.097H6.5C5.672 61.097 5 61.769 5 62.597C5 63.425 5.672 64.097 6.5 64.097H13.403H50.598H57.5C58.328 64.097 59 63.425 59 62.597C59 61.769 58.328 61.097 57.5 61.097Z" fill="black"/>
</svg>
